Origami/24x24/apps/soapui.svg

<svg width="24" height="24" version="1" xmlns="http://www.w3.org/2000/svg">
 <rect transform="matrix(-.70710678 -.70710678 -.70710678 .70710678 0 0)" x="-24.83" y="-7.16" width="15.02" height="15.02" rx="1.502" ry="1.502" style="opacity:.2"/>
 <rect transform="matrix(-.70710678 -.70710678 -.70710678 .70710678 0 0)" x="-24.48" y="-7.51" width="15.02" height="15.02" rx="1.502" ry="1.502" style="fill:#66b744"/>
 <g transform="matrix(.50000001 0 0 .50000001 0 .4999996)" style="opacity:.2">
  <path transform="scale(2)" d="M 12,4 C 10.759424,4 9.6781885,4.2080836 8.7734375,4.6054688 L 6.2792969,7.0996094 C 6.0580546,7.6691317 5.9603752,8.2739421 6.0058594,8.8652344 6.2012394,11.405178 8.6590909,13.5 12,13.5 c 2.159091,0 2.951239,1.155178 3.005859,1.865234 0.02731,0.355028 -0.0562,0.640345 -0.447265,0.964844 C 14.16753,16.654578 13.375,17 12,17 10.3,17 7.9375,15.330078 7.9375,15.330078 a 1.50015,1.50015 0 0 0 -2.4140625,0.814453 l 3.0917969,3.091797 C 9.5738734,19.657994 10.735958,20 12,20 c 1.240576,0 2.321812,-0.208084 3.226562,-0.605469 l 2.494141,-2.49414 c 0.221242,-0.569523 0.320875,-1.174333 0.275391,-1.765625 C 17.800714,12.594822 15.340909,10.5 12,10.5 9.840909,10.5 9.0487606,9.3448216 8.9941406,8.6347656 8.9668311,8.2797376 9.0522954,7.9944214 9.4433594,7.6699219 9.8344229,7.3454219 10.625,7 12,7 c 1.7,0 4.0625,1.671875 4.0625,1.671875 A 1.50015,1.50015 0 0 0 18.476562,7.8554688 L 15.384766,4.7636719 C 14.426127,4.3420058 13.264042,4 12,4 Z"/>
 </g>
 <g transform="scale(.50000001)">
  <path transform="scale(2)" d="M 12 4 C 10.759424 4 9.6781885 4.2080836 8.7734375 4.6054688 L 6.2792969 7.0996094 C 6.0580546 7.6691317 5.9603752 8.2739421 6.0058594 8.8652344 C 6.2012394 11.405178 8.6590909 13.5 12 13.5 C 14.159091 13.5 14.951239 14.655178 15.005859 15.365234 C 15.033169 15.720262 14.949658 16.005579 14.558594 16.330078 C 14.16753 16.654578 13.375 17 12 17 C 10.3 17 7.9375 15.330078 7.9375 15.330078 A 1.50015 1.50015 0 0 0 5.5234375 16.144531 L 8.6152344 19.236328 C 9.5738734 19.657994 10.735958 20 12 20 C 13.240576 20 14.321812 19.791916 15.226562 19.394531 L 17.720703 16.900391 C 17.941945 16.330868 18.041578 15.726058 17.996094 15.134766 C 17.800714 12.594822 15.340909 10.5 12 10.5 C 9.840909 10.5 9.0487606 9.3448216 8.9941406 8.6347656 C 8.9668311 8.2797376 9.0522954 7.9944214 9.4433594 7.6699219 C 9.8344229 7.3454219 10.625 7 12 7 C 13.7 7 16.0625 8.671875 16.0625 8.671875 A 1.50015 1.50015 0 0 0 18.476562 7.8554688 L 15.384766 4.7636719 C 14.426127 4.3420058 13.264042 4 12 4 z" style="fill:#ffffff"/>
 </g>
 <path d="m12 2c-0.383941 0-0.768304 0.1472105-1.0625 0.4414062l-8.4960938 8.4960938c-0.3582293 0.358229-0.4959396 0.850168-0.4179687 1.3125 0.0500963-0.297048 0.1878066-0.582338 0.4179687-0.8125l8.4960938-8.4960938c0.588391-0.5883914 1.536609-0.5883914 2.125 0l8.496094 8.4960938c0.230162 0.230162 0.367872 0.515452 0.417968 0.8125 0.077971-0.462332-0.059739-0.954271-0.417968-1.3125l-8.496094-8.4960938c-0.294196-0.2941957-0.678559-0.4414062-1.0625-0.4414062z" style="fill:#ffffff;opacity:.2"/>
</svg>

<svg xmlns="http://www.w3.org/2000/svg" width="24" height="24" version="1">
 <rect style="opacity:0.2" width="15.02" height="15.02" x="-24.83" y="-7.16" rx="1.502" ry="1.502" transform="matrix(-0.70710678,-0.70710678,-0.70710678,0.70710678,0,0)"/>
 <rect style="fill:#66b744" width="15.02" height="15.02" x="-24.48" y="-7.51" rx="1.502" ry="1.502" transform="matrix(-0.70710678,-0.70710678,-0.70710678,0.70710678,0,0)"/>
 <g style="opacity:0.2" transform="matrix(0.50000001,0,0,0.50000001,0,0.4999996)">
  <path d="M 12,4 C 10.759424,4 9.6781885,4.2080836 8.7734375,4.6054688 L 6.2792969,7.0996094 C 6.0580546,7.6691317 5.9603752,8.2739421 6.0058594,8.8652344 6.2012394,11.405178 8.6590909,13.5 12,13.5 c 2.159091,0 2.951239,1.155178 3.005859,1.865234 0.02731,0.355028 -0.0562,0.640345 -0.447265,0.964844 C 14.16753,16.654578 13.375,17 12,17 10.3,17 7.9375,15.330078 7.9375,15.330078 a 1.50015,1.50015 0 0 0 -2.4140625,0.814453 l 3.0917969,3.091797 C 9.5738734,19.657994 10.735958,20 12,20 c 1.240576,0 2.321812,-0.208084 3.226562,-0.605469 l 2.494141,-2.49414 c 0.221242,-0.569523 0.320875,-1.174333 0.275391,-1.765625 C 17.800714,12.594822 15.340909,10.5 12,10.5 9.840909,10.5 9.0487606,9.3448216 8.9941406,8.6347656 8.9668311,8.2797376 9.0522954,7.9944214 9.4433594,7.6699219 9.8344229,7.3454219 10.625,7 12,7 c 1.7,0 4.0625,1.671875 4.0625,1.671875 A 1.50015,1.50015 0 0 0 18.476562,7.8554688 L 15.384766,4.7636719 C 14.426127,4.3420058 13.264042,4 12,4 Z" transform="scale(2,2)"/>
 </g>
 <g transform="scale(0.50000001,0.50000001)">
  <path style="fill:#ffffff" d="M 12 4 C 10.759424 4 9.6781885 4.2080836 8.7734375 4.6054688 L 6.2792969 7.0996094 C 6.0580546 7.6691317 5.9603752 8.2739421 6.0058594 8.8652344 C 6.2012394 11.405178 8.6590909 13.5 12 13.5 C 14.159091 13.5 14.951239 14.655178 15.005859 15.365234 C 15.033169 15.720262 14.949658 16.005579 14.558594 16.330078 C 14.16753 16.654578 13.375 17 12 17 C 10.3 17 7.9375 15.330078 7.9375 15.330078 A 1.50015 1.50015 0 0 0 5.5234375 16.144531 L 8.6152344 19.236328 C 9.5738734 19.657994 10.735958 20 12 20 C 13.240576 20 14.321812 19.791916 15.226562 19.394531 L 17.720703 16.900391 C 17.941945 16.330868 18.041578 15.726058 17.996094 15.134766 C 17.800714 12.594822 15.340909 10.5 12 10.5 C 9.840909 10.5 9.0487606 9.3448216 8.9941406 8.6347656 C 8.9668311 8.2797376 9.0522954 7.9944214 9.4433594 7.6699219 C 9.8344229 7.3454219 10.625 7 12 7 C 13.7 7 16.0625 8.671875 16.0625 8.671875 A 1.50015 1.50015 0 0 0 18.476562 7.8554688 L 15.384766 4.7636719 C 14.426127 4.3420058 13.264042 4 12 4 z" transform="scale(2,2)"/>
 </g>
 <path style="fill:#ffffff;opacity:0.2" d="M 12 2 C 11.616059 2 11.231696 2.1472105 10.9375 2.4414062 L 2.4414062 10.9375 C 2.0831769 11.295729 1.9454666 11.787668 2.0234375 12.25 C 2.0735338 11.952952 2.2112441 11.667662 2.4414062 11.4375 L 10.9375 2.9414062 C 11.525891 2.3530148 12.474109 2.3530148 13.0625 2.9414062 L 21.558594 11.4375 C 21.788756 11.667662 21.926466 11.952952 21.976562 12.25 C 22.054533 11.787668 21.916823 11.295729 21.558594 10.9375 L 13.0625 2.4414062 C 12.768304 2.1472105 12.383941 2 12 2 z"/>
</svg>
